X:1
T:Roll Down the Line
M:2/4
L:1/8
K:E
 GB E/2E/2 F| G/2G/2 G2 G| G3/2 B/2 EF| G3 z| FF FE| D F/2 F/2- F3/2 F/2|\
 FE DB,| B3 G| G/2 B B/2 E3/2 F/2| G G2 G| GB EG| G3 F| FF FE| D/2F/2 F2 F|\
 F/2 A3/2 GF| E2 G/2G/2 A/2A/2| B B2 c| B2 G/2G/2 A/2A/2| B B2 c| B4|\
 B/2B/2 B2 B| c2 B2| A/2A/2 A2 G| A2 F/2F/2 G/2G/2| A A2 B| A2 F/2F/2 G/2G/2|\
 A A2 B| A3 z| A/2A/2 A2 A| B2 A2| G/2 G3/2 F3/2 F/2| E4|
